game/assets/gui/dialogue/play_hover.svg

<?xml version="1.0" encoding="UTF-8" standalone="no"?><!DOCTYPE svg PUBLIC "-//W3C//DTD SVG 1.1//EN" "http://www.w3.org/Graphics/SVG/1.1/DTD/svg11.dtd"><svg width="100%" height="100%" viewBox="0 0 534 534" version="1.1" xmlns="http://www.w3.org/2000/svg" xmlns:xlink="http://www.w3.org/1999/xlink" xml:space="preserve" xmlns:serif="http://www.serif.com/" style="fill-rule:evenodd;clip-rule:evenodd;stroke-linejoin:round;stroke-miterlimit:2;"><g><circle cx="266.666" cy="266.666" r="260.416" style="fill:#fff;"/><path d="M266.666,6.25c143.728,0 260.417,116.689 260.417,260.416c0,143.728 -116.689,260.417 -260.417,260.417c-143.727,0 -260.416,-116.689 -260.416,-260.417c-0,-143.727 116.689,-260.416 260.416,-260.416Z"/><path d="M252.044,90.84l-48.88,39.115c-10.273,8.239 -19.582,20.802 -26.778,34.687c-4.452,-1.271 -9.056,-2.136 -13.885,-2.136l-52.085,0c-28.635,0 -52.083,23.448 -52.083,52.085l0,104.166c0,28.635 23.448,52.083 52.083,52.083l52.085,0c4.829,0 9.433,-0.917 13.885,-2.136c7.196,13.887 16.505,26.449 26.778,34.637l48.88,39.113c22.354,17.905 40.665,9.105 40.665,-19.531l-0,-312.5c-0,-28.635 -18.311,-37.434 -40.665,-19.583Z" style="fill:#f2af0d;fill-rule:nonzero;"/><path d="M362.416,200.298c-7.859,-7.325 -20.271,-6.919 -27.593,0.966c-7.375,7.883 -6.917,20.243 0.966,27.618c0.203,0.154 20.016,19.633 19.584,41.302c-0.206,11.849 -6.436,22.937 -19.024,33.771c-8.164,7.02 -9.081,19.38 -2.035,27.517c3.866,4.527 9.308,6.816 14.801,6.816c4.526,-0 9.055,-1.576 12.741,-4.729c21.186,-18.26 32.121,-39.318 32.579,-62.665c0.76,-39.621 -30.672,-69.377 -32.019,-70.596Z" style="fill:#f2af0d;fill-rule:nonzero;"/><path d="M405.471,127.921c-9.409,-5.342 -21.313,-1.933 -26.576,7.476c-5.265,9.409 -1.907,21.31 7.504,26.602c27.312,15.31 49.539,63.525 49.539,107.573c-0,41.506 -21.769,86.213 -49.539,101.776c-9.411,5.239 -12.769,17.141 -7.504,26.552c3.587,6.409 10.198,10.018 17.063,10.018c3.206,-0 6.511,-0.812 9.513,-2.492c45.649,-25.583 69.529,-87.687 69.529,-135.854c-0,-51.065 -23.88,-116.121 -69.529,-141.651Z" style="fill:#f2af0d;fill-rule:nonzero;"/></g></svg>

<?xml version="1.0" encoding="UTF-8" standalone="no"?>
<!DOCTYPE svg PUBLIC "-//W3C//DTD SVG 1.1//EN" "http://www.w3.org/Graphics/SVG/1.1/DTD/svg11.dtd">
<svg width="100%" height="100%" viewBox="0 0 534 534" version="1.1" xmlns="http://www.w3.org/2000/svg" xmlns:xlink="http://www.w3.org/1999/xlink" xml:space="preserve" xmlns:serif="http://www.serif.com/" style="fill-rule:evenodd;clip-rule:evenodd;stroke-linejoin:round;stroke-miterlimit:2;">
    <g>
        <circle cx="266.666" cy="266.666" r="260.416" style="fill:white;"/>
        <path d="M266.666,6.25C410.394,6.25 527.083,122.939 527.083,266.666C527.083,410.394 410.394,527.083 266.666,527.083C122.939,527.083 6.25,410.394 6.25,266.666C6.25,122.939 122.939,6.25 266.666,6.25Z"/>
        <g transform="matrix(0.899999,0,0,0.899999,27.0003,27.0004)">
            <path d="M252.044,90.84L203.164,129.955C192.891,138.194 183.582,150.757 176.386,164.642C171.934,163.371 167.33,162.506 162.501,162.506L110.416,162.506C81.781,162.506 58.333,185.954 58.333,214.591L58.333,318.757C58.333,347.392 81.781,370.84 110.416,370.84L162.501,370.84C167.33,370.84 171.934,369.923 176.386,368.704C183.582,382.591 192.891,395.153 203.164,403.341L252.044,442.454C274.398,460.359 292.709,451.559 292.709,422.923L292.709,110.423C292.709,81.788 274.398,72.989 252.044,90.84Z" style="fill:rgb(242,175,13);fill-rule:nonzero;"/>
            <path d="M362.416,200.298C354.557,192.973 342.145,193.379 334.823,201.264C327.448,209.147 327.906,221.507 335.789,228.882C335.992,229.036 355.805,248.515 355.373,270.184C355.167,282.033 348.937,293.121 336.349,303.955C328.185,310.975 327.268,323.335 334.314,331.472C338.18,335.999 343.622,338.288 349.115,338.288C353.641,338.288 358.17,336.712 361.856,333.559C383.042,315.299 393.977,294.241 394.435,270.894C395.195,231.273 363.763,201.517 362.416,200.298Z" style="fill:rgb(242,175,13);fill-rule:nonzero;"/>
            <path d="M405.471,127.921C396.062,122.579 384.158,125.988 378.895,135.397C373.63,144.806 376.988,156.707 386.399,161.999C413.711,177.309 435.938,225.524 435.938,269.572C435.938,311.078 414.169,355.785 386.399,371.348C376.988,376.587 373.63,388.489 378.895,397.9C382.482,404.309 389.093,407.918 395.958,407.918C399.164,407.918 402.469,407.106 405.471,405.426C451.12,379.843 475,317.739 475,269.572C475,218.507 451.12,153.451 405.471,127.921Z" style="fill:rgb(242,175,13);fill-rule:nonzero;"/>
        </g>
    </g>
</svg>
